devices/24/battery.svg

<?xml version="1.0" encoding="UTF-8" standalone="no"?>
<!-- Created with Inkscape (http://www.inkscape.org/) -->

<svg
   xmlns:svg="http://www.w3.org/2000/svg"
   xmlns="http://www.w3.org/2000/svg"
   xmlns:xlink="http://www.w3.org/1999/xlink"
   version="1.0"
   width="24"
   height="24"
   id="svg3204">
  <defs
     id="defs3206">
    <linearGradient
       id="linearGradient4151-767-958">
      <stop
         id="stop4470"
         style="stop-color:#979797;stop-opacity:1"
         offset="0" />
      <stop
         id="stop4472"
         style="stop-color:#d5d5d5;stop-opacity:1"
         offset="1" />
    </linearGradient>
    <linearGradient
       id="linearGradient3578-995-735-4-566-885-385-488-812-692">
      <stop
         id="stop7577"
         style="stop-color:#025e98;stop-opacity:1"
         offset="0" />
      <stop
         id="stop7579"
         style="stop-color:#3ba2e3;stop-opacity:1"
         offset="1" />
    </linearGradient>
    <linearGradient
       id="linearGradient3598-871-484-814-161-889-287-317-39-832">
      <stop
         id="stop7589"
         style="stop-color:#58b8f4;stop-opacity:1"
         offset="0" />
      <stop
         id="stop7591"
         style="stop-color:#136ea8;stop-opacity:1"
         offset="1" />
    </linearGradient>
    <linearGradient
       id="linearGradient3592-990-183-196-279-371-272-744-724-968">
      <stop
         id="stop7583"
         style="stop-color:white;stop-opacity:1"
         offset="0" />
      <stop
         id="stop7585"
         style="stop-color:#d2d2d2;stop-opacity:1"
         offset="1" />
    </linearGradient>
    <linearGradient
       id="linearGradient6924-448-120">
      <stop
         id="stop4458"
         style="stop-color:#f2f2f2;stop-opacity:1"
         offset="0" />
      <stop
         id="stop4460"
         style="stop-color:#f2f2f2;stop-opacity:0"
         offset="1" />
    </linearGradient>
    <linearGradient
       id="linearGradient4126-65-434">
      <stop
         id="stop4464"
         style="stop-color:black;stop-opacity:1"
         offset="0" />
      <stop
         id="stop4466"
         style="stop-color:black;stop-opacity:0"
         offset="1" />
    </linearGradient>
    <linearGradient
       id="linearGradient4173-908-339">
      <stop
         id="stop4476"
         style="stop-color:#b2b2b2;stop-opacity:1"
         offset="0" />
      <stop
         id="stop4478"
         style="stop-color:#e6e6e6;stop-opacity:1"
         offset="1" />
    </linearGradient>
    <linearGradient
       id="linearGradient3564-531">
      <stop
         id="stop4452"
         style="stop-color:#cecece;stop-opacity:1"
         offset="0" />
      <stop
         id="stop4454"
         style="stop-color:#a9a9a9;stop-opacity:0"
         offset="1" />
    </linearGradient>
    <linearGradient
       id="linearGradient10033-588-987">
      <stop
         id="stop4446"
         style="stop-color:#e5e5e5;stop-opacity:1"
         offset="0" />
      <stop
         id="stop4448"
         style="stop-color:#b2b2b2;stop-opacity:1"
         offset="1" />
    </linearGradient>
    <linearGradient
       x1="15.036061"
       y1="11.205624"
       x2="19.776941"
       y2="18.184662"
       id="linearGradient2436"
       xlink:href="#linearGradient3592-990-183-196-279-371-272-744-724-968"
       gradientUnits="userSpaceOnUse" />
    <linearGradient
       x1="24"
       y1="16.525082"
       x2="24"
       y2="13.284962"
       id="linearGradient2438"
       xlink:href="#linearGradient3598-871-484-814-161-889-287-317-39-832"
       gradientUnits="userSpaceOnUse" />
    <radialGradient
       cx="23.857143"
       cy="40"
       r="17.142857"
       fx="23.857143"
       fy="40"
       id="radialGradient2442"
       xlink:href="#linearGradient4126-65-434"
       gradientUnits="userSpaceOnUse"
       gradientTransform="matrix(1,0,0,0.5,0,20)" />
    <linearGradient
       x1="15.036061"
       y1="11.205624"
       x2="19.776941"
       y2="18.184662"
       id="linearGradient2446"
       xlink:href="#linearGradient10033-588-987"
       gradientUnits="userSpaceOnUse" />
    <linearGradient
       x1="24"
       y1="16.525082"
       x2="24"
       y2="13.284962"
       id="linearGradient2448"
       xlink:href="#linearGradient3564-531"
       gradientUnits="userSpaceOnUse" />
    <linearGradient
       x1="21.714285"
       y1="10.285714"
       x2="27.038286"
       y2="10.285714"
       id="linearGradient2452"
       xlink:href="#linearGradient4173-908-339"
       gradientUnits="userSpaceOnUse"
       gradientTransform="matrix(0.5513379,0,0,0.6937305,-1.1102673,-4.728972)" />
    <linearGradient
       x1="16.07143"
       y1="19.5"
       x2="15.785715"
       y2="30"
       id="linearGradient2456"
       xlink:href="#linearGradient6924-448-120"
       gradientUnits="userSpaceOnUse"
       gradientTransform="matrix(0.4999637,0,0,0.5631789,-0.1525098,-3.381443)" />
    <linearGradient
       x1="10.014043"
       y1="26.841442"
       x2="21.140137"
       y2="26.841442"
       id="linearGradient2460"
       xlink:href="#linearGradient3578-995-735-4-566-885-385-488-812-692"
       gradientUnits="userSpaceOnUse"
       gradientTransform="matrix(0.486881,0,0,0.5667689,0.283337,-5.6395365)"
       spreadMethod="reflect" />
    <linearGradient
       x1="10.014043"
       y1="26.841442"
       x2="17.354513"
       y2="26.841442"
       id="linearGradient2463"
       xlink:href="#linearGradient4151-767-958"
       gradientUnits="userSpaceOnUse"
       gradientTransform="matrix(0.5226115,0,0,0.5673968,-0.5765054,-5.1575605)"
       spreadMethod="reflect" />
  </defs>
  <g
     id="layer1">
    <path
       d="m 11.933504,0.48629455 c -2.7137142,0 -7.4472104,0.70381465 -7.4472104,2.95575275 0,0.1403663 0,16.8908577 0,17.0370407 0,1.956103 3.3397823,3.034619 7.4472104,3.034619 4.107426,0 7.580202,-1.078518 7.580202,-3.034619 0,-0.115782 0,-16.9212574 0,-17.0370407 0,-2.2521977 -4.887587,-2.95575275 -7.580202,-2.95575275 z"
       id="path9129"
       style="opacity:0.3;fill:url(#linearGradient2463);fill-opacity:1;fill-rule:nonzero;stroke:white;stroke-width:0.97258759;stroke-linecap:butt;stroke-linejoin:round;stroke-miterlimit:10;stroke-opacity:0.23469388;stroke-dasharray:none;stroke-dashoffset:0;marker:none;visibility:visible;display:block;overflow:visible" />
    <path
       d="M 5,3.5 C 5,3.6402102 5,19.822717 5,19.968739 5,21.922676 8.1114452,23 11.93805,23 15.764659,23 19,21.922674 19,19.968739 19,19.853084 19,6.8850424 19,3.5 c -4.329232,0 -8.710492,0 -14,0 z"
       id="path9131"
       style="fill:url(#linearGradient2460);fill-opacity:1;fill-rule:nonzero;stroke:none;stroke-width:0.97799981;marker:none;visibility:visible;display:block;overflow:visible" />
    <path
       d="m 36.857142,14.071428 a 12.857142,5.5 0 1 1 -25.714284,0 12.857142,5.5 0 1 1 25.714284,0 z"
       transform="matrix(0.5055556,0,0,0.3636364,-0.1333337,-1.6168829)"
       id="path9133"
       style="fill:url(#linearGradient2436);fill-opacity:1;fill-rule:nonzero;stroke:url(#linearGradient2438);stroke-width:2.3322866;stroke-linecap:butt;stroke-linejoin:round;stroke-miterlimit:10;stroke-opacity:1;stroke-dasharray:none;stroke-dashoffset:0;marker:none;visibility:visible;display:block;overflow:visible" />
    <path
       d="m 6.6885367,6.232825 0,9.453361 2.414302,0.724087 0,-9.413134 c 0,0 1.1697893,-0.00774 2.4143023,-0.392325 C 8.9094577,6.473553 6.0600667,5.702691 5.2399558,4.66397 5.9483537,5.842239 6.6885367,6.232825 6.6885367,6.232825 z"
       id="path9135"
       style="opacity:0.4;fill:url(#linearGradient2456);fill-opacity:1;fill-rule:nonzero;stroke:none;stroke-width:0.97799999;marker:none;visibility:visible;display:block;overflow:visible" />
    <path
       d="M 41,40 A 17.142857,8.5714283 0 1 1 6.7142868,40 17.142857,8.5714283 0 1 1 41,40 z"
       transform="matrix(0.1745767,0,0,0.1813444,7.8729777,-4.298151)"
       id="path9139"
       style="opacity:0.2;fill:url(#radialGradient2442);fill-opacity:1;fill-rule:nonzero;stroke:none;stroke-width:2.47287893;marker:none;visibility:visible;display:block;overflow:visible" />
    <path
       d="m 12.060889,0.55890598 c -1.3001,-0.020929 -2.5534042,0.298619 -2.5534042,0.73956902 0,0.043732 0,1.480532 0,1.526078 0,0.609454 1.4491872,0.965725 2.5534042,0.965725 1.104215,0 2.431628,-0.356271 2.431627,-0.965725 0,-0.036073 0,-1.203314 0,-1.526078 0,-0.32276502 -1.119289,-0.71844302 -2.431627,-0.73956902 z"
       id="path9141"
       style="fill:url(#linearGradient2452);fill-opacity:1;fill-rule:nonzero;stroke:#a8a8a8;stroke-width:1.01496899;stroke-linecap:butt;stroke-linejoin:round;stroke-miterlimit:10;stroke-opacity:1;stroke-dasharray:none;stroke-dashoffset:0;marker:none;visibility:visible;display:block;overflow:visible" />
    <path
       d="m 36.857142,14.071428 a 12.857142,5.5 0 1 1 -25.714284,0 12.857142,5.5 0 1 1 25.714284,0 z"
       transform="matrix(0.1938623,0,0,0.1312598,7.3473049,-0.753486)"
       id="path9143"
       style="fill:url(#linearGradient2446);fill-opacity:1;fill-rule:nonzero;stroke:url(#linearGradient2448);stroke-width:6.36267948;stroke-linecap:butt;stroke-linejoin:round;stroke-miterlimit:10;stroke-opacity:1;stroke-dasharray:none;stroke-dashoffset:0;marker:none;visibility:visible;display:block;overflow:visible" />
  </g>
</svg>

<?xml version="1.0" encoding="UTF-8" standalone="no"?>
<!-- Created with Inkscape (http://www.inkscape.org/) -->
<svg
   xmlns:dc="http://purl.org/dc/elements/1.1/"
   xmlns:cc="http://creativecommons.org/ns#"
   xmlns:rdf="http://www.w3.org/1999/02/22-rdf-syntax-ns#"
   xmlns:svg="http://www.w3.org/2000/svg"
   xmlns="http://www.w3.org/2000/svg"
   xmlns:xlink="http://www.w3.org/1999/xlink"
   xmlns:sodipodi="http://sodipodi.sourceforge.net/DTD/sodipodi-0.dtd"
   xmlns:inkscape="http://www.inkscape.org/namespaces/inkscape"
   width="24"
   height="24"
   id="svg3204"
   sodipodi:version="0.32"
   inkscape:version="0.46"
   sodipodi:docname="battery.svg"
   inkscape:output_extension="org.inkscape.output.svg.inkscape"
   version="1.0">
  <defs
     id="defs3206">
    <linearGradient
       id="linearGradient4151-767-958"
       inkscape:collect="always">
      <stop
         id="stop4470"
         offset="0"
         style="stop-color:#979797;stop-opacity:1" />
      <stop
         id="stop4472"
         offset="1"
         style="stop-color:#d5d5d5;stop-opacity:1" />
    </linearGradient>
    <linearGradient
       id="linearGradient3578-995-735-4-566-885-385-488-812-692">
      <stop
         id="stop7577"
         offset="0"
         style="stop-color:#025e98;stop-opacity:1;" />
      <stop
         id="stop7579"
         offset="1"
         style="stop-color:#3ba2e3;stop-opacity:1;" />
    </linearGradient>
    <linearGradient
       id="linearGradient3598-871-484-814-161-889-287-317-39-832">
      <stop
         id="stop7589"
         offset="0"
         style="stop-color:#58b8f4;stop-opacity:1;" />
      <stop
         id="stop7591"
         offset="1"
         style="stop-color:#136ea8;stop-opacity:1;" />
    </linearGradient>
    <linearGradient
       id="linearGradient3592-990-183-196-279-371-272-744-724-968">
      <stop
         style="stop-color:#ffffff;stop-opacity:1;"
         offset="0"
         id="stop7583" />
      <stop
         style="stop-color:#d2d2d2;stop-opacity:1;"
         offset="1"
         id="stop7585" />
    </linearGradient>
    <linearGradient
       inkscape:collect="always"
       id="linearGradient6924-448-120">
      <stop
         style="stop-color:#f2f2f2;stop-opacity:1;"
         offset="0"
         id="stop4458" />
      <stop
         style="stop-color:#f2f2f2;stop-opacity:0;"
         offset="1"
         id="stop4460" />
    </linearGradient>
    <linearGradient
       inkscape:collect="always"
       id="linearGradient4126-65-434">
      <stop
         style="stop-color:#000000;stop-opacity:1;"
         offset="0"
         id="stop4464" />
      <stop
         style="stop-color:#000000;stop-opacity:0;"
         offset="1"
         id="stop4466" />
    </linearGradient>
    <linearGradient
       id="linearGradient4173-908-339"
       inkscape:collect="always">
      <stop
         id="stop4476"
         offset="0"
         style="stop-color:#b2b2b2;stop-opacity:1" />
      <stop
         id="stop4478"
         offset="1"
         style="stop-color:#e6e6e6;stop-opacity:1" />
    </linearGradient>
    <linearGradient
       id="linearGradient3564-531">
      <stop
         style="stop-color:#cecece;stop-opacity:1;"
         offset="0"
         id="stop4452" />
      <stop
         style="stop-color:#a9a9a9;stop-opacity:0;"
         offset="1"
         id="stop4454" />
    </linearGradient>
    <linearGradient
       id="linearGradient10033-588-987">
      <stop
         style="stop-color:#e5e5e5;stop-opacity:1"
         offset="0"
         id="stop4446" />
      <stop
         style="stop-color:#b2b2b2;stop-opacity:1"
         offset="1"
         id="stop4448" />
    </linearGradient>
    <linearGradient
       inkscape:collect="always"
       xlink:href="#linearGradient3592-990-183-196-279-371-272-744-724-968"
       id="linearGradient2436"
       gradientUnits="userSpaceOnUse"
       x1="15.036061"
       y1="11.205624"
       x2="19.776941"
       y2="18.184662" />
    <linearGradient
       inkscape:collect="always"
       xlink:href="#linearGradient3598-871-484-814-161-889-287-317-39-832"
       id="linearGradient2438"
       gradientUnits="userSpaceOnUse"
       x1="24"
       y1="16.525082"
       x2="24"
       y2="13.284962" />
    <radialGradient
       inkscape:collect="always"
       xlink:href="#linearGradient4126-65-434"
       id="radialGradient2442"
       gradientUnits="userSpaceOnUse"
       gradientTransform="matrix(1,0,0,0.5,0,20)"
       cx="23.857143"
       cy="40"
       fx="23.857143"
       fy="40"
       r="17.142857" />
    <linearGradient
       inkscape:collect="always"
       xlink:href="#linearGradient10033-588-987"
       id="linearGradient2446"
       gradientUnits="userSpaceOnUse"
       x1="15.036061"
       y1="11.205624"
       x2="19.776941"
       y2="18.184662" />
    <linearGradient
       inkscape:collect="always"
       xlink:href="#linearGradient3564-531"
       id="linearGradient2448"
       gradientUnits="userSpaceOnUse"
       x1="24"
       y1="16.525082"
       x2="24"
       y2="13.284962" />
    <linearGradient
       inkscape:collect="always"
       xlink:href="#linearGradient4173-908-339"
       id="linearGradient2452"
       gradientUnits="userSpaceOnUse"
       gradientTransform="matrix(0.5513379,0,0,0.6937305,-1.1102673,-4.728972)"
       x1="21.714285"
       y1="10.285714"
       x2="27.038286"
       y2="10.285714" />
    <linearGradient
       inkscape:collect="always"
       xlink:href="#linearGradient6924-448-120"
       id="linearGradient2456"
       gradientUnits="userSpaceOnUse"
       gradientTransform="matrix(0.4999637,0,0,0.5631789,-0.1525098,-3.381443)"
       x1="16.07143"
       y1="19.5"
       x2="15.785715"
       y2="30" />
    <linearGradient
       inkscape:collect="always"
       xlink:href="#linearGradient3578-995-735-4-566-885-385-488-812-692"
       id="linearGradient2460"
       gradientUnits="userSpaceOnUse"
       gradientTransform="matrix(0.486881,0,0,0.5667689,0.283337,-5.6395365)"
       spreadMethod="reflect"
       x1="10.014043"
       y1="26.841442"
       x2="21.140137"
       y2="26.841442" />
    <linearGradient
       inkscape:collect="always"
       xlink:href="#linearGradient4151-767-958"
       id="linearGradient2463"
       gradientUnits="userSpaceOnUse"
       gradientTransform="matrix(0.5226115,0,0,0.5673968,-0.5765054,-5.1575605)"
       spreadMethod="reflect"
       x1="10.014043"
       y1="26.841442"
       x2="17.354513"
       y2="26.841442" />
  </defs>
  <sodipodi:namedview
     id="base"
     pagecolor="#ffffff"
     bordercolor="#666666"
     borderopacity="1.0"
     inkscape:pageopacity="0.0"
     inkscape:pageshadow="2"
     inkscape:zoom="8.5589383"
     inkscape:cx="11.714919"
     inkscape:cy="16.956971"
     inkscape:current-layer="layer1"
     showgrid="true"
     inkscape:grid-bbox="true"
     inkscape:document-units="px"
     inkscape:window-width="1440"
     inkscape:window-height="794"
     inkscape:window-x="0"
     inkscape:window-y="24" />
  <metadata
     id="metadata3209">
    <rdf:RDF>
      <cc:Work
         rdf:about="">
        <dc:format>image/svg+xml</dc:format>
        <dc:type
           rdf:resource="http://purl.org/dc/dcmitype/StillImage" />
      </cc:Work>
    </rdf:RDF>
  </metadata>
  <g
     id="layer1"
     inkscape:label="Layer 1"
     inkscape:groupmode="layer">
    <path
       style="opacity:0.3;fill:url(#linearGradient2463);fill-opacity:1;fill-rule:nonzero;stroke:#ffffff;stroke-width:0.97258759;stroke-linecap:butt;stroke-linejoin:round;marker:none;marker-start:none;marker-mid:none;marker-end:none;stroke-miterlimit:10;stroke-dasharray:none;stroke-dashoffset:0;stroke-opacity:0.23469388;visibility:visible;display:block;overflow:visible"
       d="M 11.933504,0.48629455 C 9.2197898,0.48629455 4.4862936,1.1901092 4.4862936,3.4420473 C 4.4862936,3.5824136 4.4862936,20.332905 4.4862936,20.479088 C 4.4862936,22.435191 7.8260759,23.513707 11.933504,23.513707 C 16.04093,23.513707 19.513706,22.435189 19.513706,20.479088 C 19.513706,20.363306 19.513706,3.5578306 19.513706,3.4420473 C 19.513706,1.1898496 14.626119,0.48629455 11.933504,0.48629455 z"
       id="path9129"
       sodipodi:nodetypes="csszssz" />
    <path
       style="fill:url(#linearGradient2460);fill-opacity:1;fill-rule:nonzero;stroke:none;stroke-width:0.97799981;stroke-linecap:butt;stroke-linejoin:round;marker:none;marker-start:none;marker-mid:none;marker-end:none;stroke-miterlimit:10;stroke-dasharray:none;stroke-dashoffset:0;stroke-opacity:1;visibility:visible;display:block;overflow:visible"
       d="M 5,3.5 C 5,3.6402102 5,19.822717 5,19.968739 C 5,21.922676 8.1114452,23 11.93805,23 C 15.764659,23 19,21.922674 19,19.968739 C 19,19.853084 19,6.8850424 19,3.5 C 14.670768,3.5 10.289508,3.5 5,3.5 z"
       id="path9131"
       sodipodi:nodetypes="cszscc" />
    <path
       sodipodi:type="arc"
       style="fill:url(#linearGradient2436);fill-opacity:1;fill-rule:nonzero;stroke:url(#linearGradient2438);stroke-width:2.3322866;stroke-linecap:butt;stroke-linejoin:round;marker:none;marker-start:none;marker-mid:none;marker-end:none;stroke-miterlimit:10;stroke-dasharray:none;stroke-dashoffset:0;stroke-opacity:1;visibility:visible;display:block;overflow:visible"
       id="path9133"
       sodipodi:cx="24"
       sodipodi:cy="14.071428"
       sodipodi:rx="12.857142"
       sodipodi:ry="5.5"
       d="M 36.857142,14.071428 A 12.857142,5.5 0 1 1 11.142858,14.071428 A 12.857142,5.5 0 1 1 36.857142,14.071428 z"
       transform="matrix(0.5055556,0,0,0.3636364,-0.1333337,-1.6168829)" />
    <path
       style="opacity:0.4;fill:url(#linearGradient2456);fill-opacity:1;fill-rule:nonzero;stroke:none;stroke-width:0.97799999;stroke-linecap:butt;stroke-linejoin:round;marker:none;marker-start:none;marker-mid:none;marker-end:none;stroke-miterlimit:10;stroke-dasharray:none;stroke-dashoffset:0;stroke-opacity:1;visibility:visible;display:block;overflow:visible"
       d="M 6.6885367,6.232825 L 6.6885367,15.686186 L 9.1028387,16.410273 L 9.1028387,6.997139 C 9.1028387,6.997139 10.272628,6.989401 11.517141,6.604814 C 8.9094577,6.473553 6.0600667,5.702691 5.2399558,4.66397 C 5.9483537,5.842239 6.6885367,6.232825 6.6885367,6.232825 z"
       id="path9135"
       sodipodi:nodetypes="ccccccc" />
    <path
       transform="matrix(0.1745767,0,0,0.1813444,7.8729777,-4.298151)"
       d="M 41,40 A 17.142857,8.5714283 0 1 1 6.7142868,40 A 17.142857,8.5714283 0 1 1 41,40 z"
       sodipodi:ry="8.5714283"
       sodipodi:rx="17.142857"
       sodipodi:cy="40"
       sodipodi:cx="23.857143"
       id="path9139"
       style="opacity:0.2;fill:url(#radialGradient2442);fill-opacity:1;fill-rule:nonzero;stroke:none;stroke-width:2.47287893;stroke-linecap:butt;stroke-linejoin:round;marker:none;marker-start:none;marker-mid:none;marker-end:none;stroke-miterlimit:10;stroke-dasharray:none;stroke-dashoffset:0;stroke-opacity:1;visibility:visible;display:block;overflow:visible"
       sodipodi:type="arc" />
    <path
       sodipodi:nodetypes="csszszz"
       id="path9141"
       d="M 12.060889,0.55890598 C 10.760789,0.53797698 9.5074848,0.85752498 9.5074848,1.298475 C 9.5074848,1.342207 9.5074848,2.779007 9.5074848,2.824553 C 9.5074848,3.434007 10.956672,3.790278 12.060889,3.790278 C 13.165104,3.790278 14.492517,3.434007 14.492516,2.824553 C 14.492516,2.78848 14.492516,1.621239 14.492516,1.298475 C 14.492516,0.97570998 13.373227,0.58003198 12.060889,0.55890598 z"
       style="fill:url(#linearGradient2452);fill-opacity:1;fill-rule:nonzero;stroke:#a8a8a8;stroke-width:1.01496899;stroke-linecap:butt;stroke-linejoin:round;marker:none;marker-start:none;marker-mid:none;marker-end:none;stroke-miterlimit:10;stroke-dasharray:none;stroke-dashoffset:0;stroke-opacity:1;visibility:visible;display:block;overflow:visible" />
    <path
       sodipodi:type="arc"
       style="fill:url(#linearGradient2446);fill-opacity:1;fill-rule:nonzero;stroke:url(#linearGradient2448);stroke-width:6.36267948;stroke-linecap:butt;stroke-linejoin:round;marker:none;marker-start:none;marker-mid:none;marker-end:none;stroke-miterlimit:10;stroke-dasharray:none;stroke-dashoffset:0;stroke-opacity:1;visibility:visible;display:block;overflow:visible"
       id="path9143"
       sodipodi:cx="24"
       sodipodi:cy="14.071428"
       sodipodi:rx="12.857142"
       sodipodi:ry="5.5"
       d="M 36.857142,14.071428 A 12.857142,5.5 0 1 1 11.142858,14.071428 A 12.857142,5.5 0 1 1 36.857142,14.071428 z"
       transform="matrix(0.1938623,0,0,0.1312598,7.3473049,-0.753486)" />
  </g>
</svg>
